material/.icons/material/alpha-p-box-outline.svg

<svg xmlns="http://www.w3.org/2000/svg" viewBox="0 0 24 24"><path d="M9 7h4a2 2 0 012 2v2a2 2 0 01-2 2h-2v4H9V7m2 2v2h2V9h-2M5 3h14a2 2 0 012 2v14a2 2 0 01-2 2H5a2 2 0 01-2-2V5a2 2 0 012-2m0 2v14h14V5H5z"/></svg>

<?xml version="1.0" encoding="UTF-8"?><!DOCTYPE svg PUBLIC "-//W3C//DTD SVG 1.1//EN" "http://www.w3.org/Graphics/SVG/1.1/DTD/svg11.dtd"><svg xmlns="http://www.w3.org/2000/svg" xmlns:xlink="http://www.w3.org/1999/xlink" version="1.1" id="mdi-alpha-p-box-outline" width="24" height="24" viewBox="0 0 24 24"><path d="M9,7H13A2,2 0 0,1 15,9V11A2,2 0 0,1 13,13H11V17H9V7M11,9V11H13V9H11M5,3H19A2,2 0 0,1 21,5V19A2,2 0 0,1 19,21H5A2,2 0 0,1 3,19V5A2,2 0 0,1 5,3M5,5V19H19V5H5Z" /></svg>
